X: 14173
T: From The Pink
R: barndance
M: 4/4
K: Cmajor
M:2/4
EF GE|C>D EC|EF GE|D>C D2|EF GE|
C>D EC|cB AB|e2 Hc2|FE DC|CB, C2:|
AB c2|DE F2|EF G>A|GF E2|ed f2|cA G2|c2 {B}c2||

